X: 1780
T: Ar Ch'akouz
R: polka
M: 2/4
K: Gminor
|G2d2 d2d2|c2d2 B2A2|c2 BA G2 AB|c2d2 B2A2|
B2 AG A2 c2|AA BA G2F2|G2B2 A2c2|AA BG A2 G2||
G2d2 d2d2|c2d2 B2A2|c2 BA G2 AB|c2d2 B2A2|
B2 B2 A2 c2|Bc BA G2 F2|G2B2 ABc2|GA BG A2 G2||

